apps/wow-docs/public/box/mobile_box.svg

<svg width="390" height="211" viewBox="0 0 390 211" fill="none" xmlns="http://www.w3.org/2000/svg">
<rect width="390" height="211" fill="white"/>
<path d="M16.5 57C16.5 52.8579 19.8579 49.5 24 49.5H366C370.142 49.5 373.5 52.8579 373.5 57V136C373.5 140.142 370.142 143.5 366 143.5H24C19.8579 143.5 16.5 140.142 16.5 136V57Z" fill="white"/>
<path d="M16.5 57C16.5 52.8579 19.8579 49.5 24 49.5H366C370.142 49.5 373.5 52.8579 373.5 57V136C373.5 140.142 370.142 143.5 366 143.5H24C19.8579 143.5 16.5 140.142 16.5 136V57Z" stroke="#C2C2C2"/>
<path d="M49.648 78.776H46.144V89.112H44.48V78.776H40.96V77.336H49.648V78.776ZM55.7725 84.312C55.6978 83.6933 55.4792 83.176 55.1165 82.76C54.7538 82.3333 54.2312 82.12 53.5485 82.12C52.9298 82.12 52.3912 82.3333 51.9325 82.76C51.4845 83.176 51.2125 83.6987 51.1165 84.328L55.7725 84.312ZM49.5165 84.952C49.5165 84.1307 49.6872 83.4 50.0285 82.76C50.3698 82.12 50.8392 81.624 51.4365 81.272C52.0445 80.9093 52.7378 80.728 53.5165 80.728C54.6152 80.728 55.4205 80.9947 55.9325 81.528C56.4552 82.0613 56.8072 82.552 56.9885 83C57.2338 83.5973 57.3565 84.2587 57.3565 84.984C57.3565 85.1333 57.3512 85.2667 57.3405 85.384C57.3298 85.4907 57.3245 85.56 57.3245 85.592H51.1165C51.2125 86.232 51.4898 86.7547 51.9485 87.16C52.4072 87.5653 52.9352 87.768 53.5325 87.768C54.0125 87.768 54.4072 87.6933 54.7165 87.544C55.0365 87.3947 55.2552 87.256 55.3725 87.128C55.4898 87 55.6018 86.856 55.7085 86.696L57.0525 87.304C56.7965 87.8267 56.3698 88.2693 55.7725 88.632C55.1752 88.984 54.4232 89.16 53.5165 89.16C52.7378 89.16 52.0445 88.984 51.4365 88.632C50.8392 88.2693 50.3698 87.768 50.0285 87.128C49.6872 86.488 49.5165 85.7627 49.5165 84.952ZM63.2689 84.936L66.3569 89.112H64.2929L62.2929 86.28L60.3089 89.112H58.2449L61.2849 84.936L58.1809 80.744H60.2609L62.2929 83.656L64.3089 80.744H66.3889L63.2689 84.936ZM70.9859 89.16C70.2605 89.16 69.6632 88.92 69.1939 88.44C68.7245 87.96 68.4845 87.3413 68.4739 86.584V82.264H67.0339V80.808H68.4739V78.52H70.1379V80.808H71.9299V82.264H70.1379V86.504C70.1379 86.792 70.2179 87.0427 70.3779 87.256C70.5379 87.4693 70.7405 87.5813 70.9859 87.592C71.1672 87.592 71.3379 87.576 71.4979 87.544C71.6685 87.5013 71.7805 87.4747 71.8339 87.464L72.1859 89.016C71.6632 89.112 71.2632 89.16 70.9859 89.16Z" fill="#121212"/>
<path d="M42.448 113.88C42.7787 114.509 43.216 115.016 43.76 115.4C44.3147 115.773 44.8853 115.96 45.472 115.96C46.24 115.96 46.864 115.779 47.344 115.416C47.8347 115.043 48.08 114.557 48.08 113.96C48.08 113.544 47.9573 113.197 47.712 112.92C47.4667 112.643 47.1627 112.419 46.8 112.248C46.448 112.077 45.9573 111.88 45.328 111.656C44.56 111.389 43.9413 111.139 43.472 110.904C43.0133 110.669 42.6187 110.333 42.288 109.896C41.9573 109.459 41.792 108.899 41.792 108.216C41.792 107.608 41.9573 107.08 42.288 106.632C42.6293 106.184 43.088 105.843 43.664 105.608C44.24 105.373 44.88 105.256 45.584 105.256C46.4267 105.256 47.184 105.48 47.856 105.928C48.528 106.376 49.0027 107.016 49.28 107.848L48.016 108.296C47.8453 107.741 47.5307 107.304 47.072 106.984C46.624 106.664 46.1387 106.499 45.616 106.488C44.9227 106.488 44.3413 106.648 43.872 106.968C43.4133 107.277 43.184 107.693 43.184 108.216C43.184 108.621 43.3067 108.963 43.552 109.24C43.7973 109.517 44.096 109.747 44.448 109.928C44.8107 110.099 45.3067 110.296 45.936 110.52C46.704 110.797 47.3227 111.059 47.792 111.304C48.2613 111.539 48.6613 111.875 48.992 112.312C49.3227 112.739 49.488 113.293 49.488 113.976C49.488 114.605 49.3173 115.165 48.976 115.656C48.6453 116.147 48.176 116.525 47.568 116.792C46.96 117.059 46.2667 117.192 45.488 117.192C44.6133 117.192 43.8133 116.963 43.088 116.504C42.3627 116.035 41.7547 115.373 41.264 114.52L42.448 113.88ZM53.0574 113.592C53.0574 114.275 53.2494 114.84 53.6334 115.288C54.0174 115.725 54.5134 115.944 55.1214 115.944C55.804 115.944 56.3587 115.741 56.7854 115.336C57.212 114.92 57.4254 114.376 57.4254 113.704V108.792H58.8334V117.064H57.4254V115.832C57.1587 116.227 56.8014 116.547 56.3534 116.792C55.916 117.037 55.468 117.16 55.0094 117.16C54.3694 117.16 53.7934 117.011 53.2814 116.712C52.7694 116.413 52.3694 116.003 52.0814 115.48C51.7934 114.957 51.6494 114.365 51.6494 113.704V108.792H53.0574V113.592ZM65.0233 117.16C64.5646 117.16 64.0899 117.037 63.5993 116.792C63.1086 116.547 62.6873 116.141 62.3353 115.576V117.064H60.9273V105.384H62.3353V110.376C62.6873 109.811 63.1086 109.405 63.5993 109.16C64.0899 108.915 64.5699 108.792 65.0393 108.792C65.8073 108.792 66.4899 108.973 67.0873 109.336C67.6846 109.688 68.1486 110.179 68.4793 110.808C68.8206 111.437 68.9913 112.157 68.9913 112.968C68.9913 113.779 68.8206 114.504 68.4793 115.144C68.1486 115.773 67.6793 116.269 67.0713 116.632C66.4739 116.984 65.7913 117.16 65.0233 117.16ZM62.3353 112.984C62.3353 113.528 62.4526 114.029 62.6873 114.488C62.9326 114.947 63.2579 115.309 63.6633 115.576C64.0686 115.843 64.5059 115.976 64.9753 115.976C65.4766 115.976 65.9246 115.848 66.3193 115.592C66.7246 115.336 67.0339 114.984 67.2473 114.536C67.4713 114.077 67.5833 113.56 67.5833 112.984C67.5833 112.408 67.4713 111.896 67.2473 111.448C67.0339 110.989 66.7246 110.637 66.3193 110.392C65.9246 110.136 65.4766 110.008 64.9753 110.008C64.5059 110.008 64.0686 110.141 63.6633 110.408C63.2579 110.675 62.9326 111.037 62.6873 111.496C62.4526 111.955 62.3353 112.451 62.3353 112.984ZM73.4345 117.096C72.7518 117.096 72.1918 116.872 71.7545 116.424C71.3172 115.976 71.0878 115.4 71.0665 114.696V110.072H69.6905V108.84H71.0665V106.648H72.4745V108.84H74.2505V110.072H72.4745V114.6C72.4745 114.92 72.5652 115.197 72.7465 115.432C72.9278 115.667 73.1572 115.784 73.4345 115.784C73.5945 115.784 73.7385 115.773 73.8665 115.752C73.9945 115.731 74.1225 115.704 74.2505 115.672L74.5065 116.968C74.1012 117.053 73.7438 117.096 73.4345 117.096ZM81.9815 112.392C81.9068 111.709 81.6828 111.139 81.3095 110.68C80.9468 110.211 80.3975 109.976 79.6615 109.976C78.9895 109.976 78.4135 110.205 77.9335 110.664C77.4642 111.112 77.1815 111.693 77.0855 112.408L81.9815 112.392ZM75.6935 112.936C75.6935 112.125 75.8588 111.405 76.1895 110.776C76.5202 110.147 76.9842 109.656 77.5815 109.304C78.1788 108.952 78.8562 108.776 79.6135 108.776C81.2028 108.776 82.3388 109.523 83.0215 111.016C83.2455 111.613 83.3575 112.248 83.3575 112.92C83.3575 113.101 83.3522 113.251 83.3415 113.368C83.3308 113.475 83.3255 113.533 83.3255 113.544H77.0855C77.1922 114.237 77.4802 114.803 77.9495 115.24C78.4295 115.677 78.9895 115.896 79.6295 115.896C80.1415 115.896 80.5628 115.816 80.8935 115.656C81.2348 115.496 81.4695 115.341 81.5975 115.192C81.7362 115.032 81.8588 114.872 81.9655 114.712L83.0855 115.288C82.8402 115.789 82.4188 116.216 81.8215 116.568C81.2348 116.92 80.4988 117.096 79.6135 117.096C78.8562 117.096 78.1788 116.92 77.5815 116.568C76.9842 116.216 76.5202 115.725 76.1895 115.096C75.8588 114.467 75.6935 113.747 75.6935 112.936ZM88.9049 112.936L91.9929 117.064H90.2489L88.1209 114.12L86.0249 117.064H84.2649L87.3209 112.936L84.2329 108.792H86.0089L88.1209 111.784L90.2489 108.792H92.0089L88.9049 112.936ZM96.4701 117.096C95.7875 117.096 95.2275 116.872 94.7901 116.424C94.3528 115.976 94.1235 115.4 94.1021 114.696V110.072H92.7261V108.84H94.1021V106.648H95.5101V108.84H97.2861V110.072H95.5101V114.6C95.5101 114.92 95.6008 115.197 95.7821 115.432C95.9635 115.667 96.1928 115.784 96.4701 115.784C96.6301 115.784 96.7741 115.773 96.9021 115.752C97.0301 115.731 97.1581 115.704 97.2861 115.672L97.5421 116.968C97.1368 117.053 96.7795 117.096 96.4701 117.096Z" fill="#121212"/>
<path d="M15.5757 161.576C15.3414 161.81 15.3414 162.19 15.5757 162.424L19.3941 166.243C19.6284 166.477 20.0083 166.477 20.2426 166.243C20.477 166.008 20.477 165.628 20.2426 165.394L16.8485 162L20.2426 158.606C20.477 158.372 20.477 157.992 20.2426 157.757C20.0083 157.523 19.6284 157.523 19.3941 157.757L15.5757 161.576ZM374.424 162.424C374.659 162.19 374.659 161.81 374.424 161.576L370.606 157.757C370.372 157.523 369.992 157.523 369.757 157.757C369.523 157.992 369.523 158.372 369.757 158.606L373.151 162L369.757 165.394C369.523 165.628 369.523 166.008 369.757 166.243C369.992 166.477 370.372 166.477 370.606 166.243L374.424 162.424ZM16 162.6H374V161.4H16V162.6Z" fill="#6B6B6B"/>
<path d="M194.418 176.054H188.804V179.302H193.522V180.562H188.804V185.098H187.348V174.794H194.418V176.054ZM197.442 177.818V185.098H195.986V177.818H197.442ZM195.888 175.438C195.888 175.195 195.963 174.999 196.112 174.85C196.271 174.691 196.472 174.612 196.714 174.612C196.957 174.612 197.153 174.691 197.302 174.85C197.461 174.999 197.54 175.195 197.54 175.438C197.54 175.671 197.461 175.867 197.302 176.026C197.153 176.185 196.957 176.264 196.714 176.264C196.472 176.264 196.271 176.189 196.112 176.04C195.963 175.881 195.888 175.681 195.888 175.438ZM200.701 174.794V185.098H199.245V174.794H200.701ZM203.843 174.794V185.098H202.387V174.794H203.843Z" fill="#6B6B6B"/>
</svg>

<svg xmlns="http://www.w3.org/2000/svg" width="390" height="211" fill="none" viewBox="0 0 390 211"><path fill="#fff" d="M0 0h390v211H0z"/><path fill="#fff" d="M16.5 57a7.5 7.5 0 0 1 7.5-7.5h342a7.5 7.5 0 0 1 7.5 7.5v79a7.5 7.5 0 0 1-7.5 7.5H24a7.5 7.5 0 0 1-7.5-7.5z"/><path stroke="#C2C2C2" d="M16.5 57a7.5 7.5 0 0 1 7.5-7.5h342a7.5 7.5 0 0 1 7.5 7.5v79a7.5 7.5 0 0 1-7.5 7.5H24a7.5 7.5 0 0 1-7.5-7.5z"/><path fill="#121212" d="M49.648 78.776h-3.504v10.336H44.48V78.776h-3.52v-1.44h8.688zm6.124 5.536q-.111-.928-.655-1.552-.544-.64-1.569-.64-.927 0-1.616.64-.672.624-.816 1.568zm-6.255.64q0-1.232.511-2.192.513-.96 1.409-1.488.911-.544 2.08-.544 1.647 0 2.415.8.785.8 1.056 1.472.368.896.368 1.984 0 .225-.016.4-.015.16-.016.208h-6.207q.144.96.832 1.568t1.584.608q.72 0 1.184-.224.48-.224.656-.416.175-.192.336-.432l1.343.608q-.383.784-1.28 1.328-.896.528-2.255.528-1.17 0-2.08-.528a3.83 3.83 0 0 1-1.408-1.504q-.513-.96-.513-2.176m13.752-.016 3.088 4.176h-2.064l-2-2.832-1.984 2.832h-2.064l3.04-4.176-3.104-4.192h2.08l2.032 2.912 2.016-2.912h2.08zm7.717 4.224q-1.089 0-1.792-.72-.705-.72-.72-1.856v-4.32h-1.44v-1.456h1.44V78.52h1.664v2.288h1.792v1.456h-1.792v4.24q0 .432.24.752t.608.336q.272 0 .512-.048.255-.065.336-.08l.352 1.552q-.785.144-1.2.144M42.448 113.88q.495.944 1.312 1.52.832.56 1.712.56 1.152 0 1.872-.544.736-.56.736-1.456 0-.624-.368-1.04a2.8 2.8 0 0 0-.912-.672 15 15 0 0 0-1.472-.592q-1.152-.4-1.856-.752a3.45 3.45 0 0 1-1.184-1.008q-.496-.656-.496-1.68 0-.912.496-1.584.512-.672 1.376-1.024t1.92-.352q1.264 0 2.272.672t1.424 1.92l-1.264.448a2.4 2.4 0 0 0-.944-1.312 2.55 2.55 0 0 0-1.456-.496q-1.04 0-1.744.48-.688.463-.688 1.248 0 .608.368 1.024t.896.688q.544.256 1.488.592 1.152.416 1.856.784.705.352 1.2 1.008.495.64.496 1.664 0 .944-.512 1.68-.495.736-1.408 1.136t-2.08.4a4.4 4.4 0 0 1-2.4-.688q-1.087-.704-1.824-1.984zm10.61-.288q0 1.024.575 1.696.576.656 1.488.656 1.025 0 1.664-.608.64-.624.64-1.632v-4.912h1.408v8.272h-1.408v-1.232a3 3 0 0 1-1.072.96 2.7 2.7 0 0 1-1.344.368q-.96 0-1.728-.448a3.17 3.17 0 0 1-1.2-1.232q-.432-.784-.432-1.776v-4.912h1.408zm11.965 3.568q-.687 0-1.424-.368-.735-.368-1.264-1.216v1.488h-1.408v-11.68h1.408v4.992q.529-.848 1.264-1.216t1.44-.368q1.151 0 2.048.544a3.63 3.63 0 0 1 1.392 1.472q.512.944.512 2.16t-.512 2.176q-.495.944-1.408 1.488-.896.528-2.048.528m-2.688-4.176q0 .816.352 1.504.368.688.976 1.088.609.4 1.312.4.753 0 1.344-.384.609-.384.928-1.056.336-.688.336-1.552t-.336-1.536a2.36 2.36 0 0 0-.928-1.056 2.4 2.4 0 0 0-1.344-.384q-.704 0-1.312.4-.607.4-.976 1.088a3.2 3.2 0 0 0-.352 1.488m11.1 4.112q-1.025 0-1.68-.672-.657-.672-.688-1.728v-4.624H69.69v-1.232h1.376v-2.192h1.408v2.192h1.776v1.232h-1.776v4.528q0 .48.272.832.27.352.688.352.24 0 .431-.032.193-.032.385-.08l.255 1.296a5.3 5.3 0 0 1-1.072.128m8.546-4.704q-.111-1.024-.671-1.712-.545-.704-1.648-.704-1.008 0-1.729.688-.704.672-.848 1.744zm-6.287.544q0-1.216.495-2.16.496-.944 1.393-1.472.895-.528 2.032-.528 2.384 0 3.407 2.24.337.896.337 1.904a5 5 0 0 1-.032.624h-6.24q.159 1.04.864 1.696.72.656 1.68.656.767 0 1.264-.24.51-.24.703-.464.21-.24.369-.48l1.12.576q-.369.752-1.264 1.28-.88.528-2.209.528-1.135 0-2.031-.528a3.63 3.63 0 0 1-1.392-1.472q-.496-.944-.496-2.16m13.21 0 3.089 4.128h-1.744l-2.128-2.944-2.096 2.944h-1.76l3.056-4.128-3.088-4.144h1.776l2.112 2.992 2.128-2.992h1.76zm7.566 4.16q-1.024 0-1.68-.672t-.688-1.728v-4.624h-1.376v-1.232h1.376v-2.192h1.408v2.192h1.776v1.232H95.51v4.528q0 .48.272.832.271.352.688.352.24 0 .432-.032t.384-.08l.256 1.296a5.3 5.3 0 0 1-1.072.128"/><path fill="#6B6B6B" d="M15.576 161.576a.6.6 0 0 0 0 .848l3.818 3.819a.6.6 0 0 0 .849-.849L16.849 162l3.394-3.394a.6.6 0 0 0-.849-.849zm358.848.848a.6.6 0 0 0 0-.848l-3.818-3.819a.601.601 0 0 0-.849.849l3.394 3.394-3.394 3.394a.601.601 0 0 0 .849.849zM16 162.6h358v-1.2H16zM194.418 176.054h-5.614v3.248h4.718v1.26h-4.718v4.536h-1.456v-10.304h7.07zm3.024 1.764v7.28h-1.456v-7.28zm-1.554-2.38q0-.364.224-.588a.82.82 0 0 1 .602-.238q.364 0 .588.238a.77.77 0 0 1 .238.588.8.8 0 0 1-.238.588.77.77 0 0 1-.588.238.85.85 0 0 1-.602-.224.85.85 0 0 1-.224-.602m4.813-.644v10.304h-1.456v-10.304zm3.142 0v10.304h-1.456v-10.304z"/></svg>
